X:36
T:Fly. JBu.36, The
O:England,South Yorkshire
S:Joshua Burnett’s MS,c1835,S.Yorkshire
M:C|
L:1/8
Q:1/2=80
R:reel
Z:vmp.R.Greig.2011
K:Bb
A|BFDF BFDF|ECCB cGGA|BFDF BFDF|ECCF DB,B,:|
|:f|fBfb fdBd|cBcd cGGg|fBfb fdBd|cBcdB2Bf|
fBfb fdBd|cBcd cGGg|fBgB aBbB|cBcd BBB:|

